X: 1
T: Glenshane Pass, The
Z: bdh
S: https://thesession.org/tunes/15399#setting28792
R: jig
M: 6/8
L: 1/8
K: Gmaj
|: DGG GdB | edB G2E | D2 FGA | BcB AGE |
DGG GdB | edB G2E | DGG FGA |1 BGF G2E :|2 BGF G2A ||
|: BGG ABc | B/c/dB cAF | BGG ABc | BGB AFD |
BGG AFA | BGB ABc | B/c/dB cAF |1 AGF Gdc :|2 AGF GFE ||
